X:9
T:Old Joe
C:Trad, Am. (after CW)
M:4/4
L:1/8
Q:1/2=116
K:C
|: c3 d cAG2 | AGAB cBcd | eg2 g-g4  | agab aged |
 c3 d cAG2 | AGAB cBcd | eg2a g2 ag | edcA c4 :||
|: A,4 C3D | EDCE DCA,G, | A,2 A,2 C2 D2 | EDC2 D4 |
A,2 A,2 C2 D2 | EDCE DCA,G, | C2 c2-c A GF | ECDB, C4 :||
